X: 6
T: The Mountain Road
R: reel
M: 4/4
L: 1/8
K: Dmaj
|:F2 AF BFAF| F2 AF EFDE| F2 AF BFAF| G2 FG EFGE|
F2 AF BFAF|F2 AF EFDE| FA A2 BAFB|ABde fddc||
|:dcdB ADFA| dcde f3e| dcdB ADFA| G2 FG EDFA|
dcdB ADFA| dcde f3e| dcdB ADFA| G2 FG EFGE||
|:F3A BF3|F2 AF eFDE|F3A BF3|G2 FG EFGE|
F3A BF3|FADE FDFA|FA A2 BAFB|ABde fd d2||
|:(3Bcd dc ADFA|(3Bcd de f3e|(3Bcd dc ADFA|GAFG EDFA|
(3Bcd dc ADFA|(3Bcd de f3e|dcdB ADFA|G2 FG EFGE||


Tune 68	Setting 24724

